X:1344
T:The Cashmere Shawl
R:Reel
N:Collected by Kennedy
B:O'Neill's 1344
Z:Transcribed by Trish O'Neil
M:C|
L:1/8
K:C
BG|A2AB AGED|EGAB dc2BG|AcBG AGEa|gedBdc2:|
cd|ecgc eccg|ecged2cd|ecgc eccg|afged2cd|
ecgc eccg|ecged2cd|efg2eaa2|gedcdc2|]
